img/icon/promo-technics.svg

<svg width="78" height="62" fill="none" xmlns="http://www.w3.org/2000/svg"><path fill-rule="evenodd" clip-rule="evenodd" d="M0 45.875c0-8.907 7.22-16.126 16.125-16.126 8.906 0 16.126 7.219 16.125 16.126C32.25 54.78 25.03 62 16.125 62 7.22 62 0 54.78 0 45.875zm10.9579 5.1671a7.3058 7.3058 0 005.1671 2.1399 7.3058 7.3058 0 007.307-7.307c0-4.0356-3.2715-7.307-7.307-7.307-4.0355 0-7.307 3.2714-7.307 7.307a7.3059 7.3059 0 002.1399 5.1671zM60.854 45.874c-4.4525 0-8.062 3.6095-8.062 8.062a8.062 8.062 0 0012.093 6.9819 8.062 8.062 0 004.031-6.9819 8.0603 8.0603 0 00-8.062-8.062zm-5.062 8.062c-.0006 2.7962 2.2658 5.0634 5.062 5.064 2.7962.0005 5.0634-2.2658 5.064-5.062.0006-2.7962-2.2658-5.0635-5.062-5.064-2.7962-.0006-5.0634 2.2658-5.064 5.062z" fill="#fff"/><path fill-rule="evenodd" clip-rule="evenodd" d="M75.437 31.313c.438 3.312 2.461 18.414 2.461 18.414s.743 3.148-2.898 3.148h-1.955c-.389-6.402-5.69-11.479-12.191-11.479s-11.801 5.077-12.191 11.479H38.499c.691-2.211 1.064-4.562 1.064-7 0-12.946-10.494-23.439-23.438-23.439a23.3275 23.3275 0 00-13.079 3.986c-.045-2.959-.042-13.885 2.266-20.255 0 0 1.063-2.542 3.438-3.167S33.5 0 33.5 0s2.314.062 3.126 1.875c.812 1.813 10.562 21.875 10.562 21.875L59 25.128v-5.295h4V14h3v11.946l5.812.679s3.078.547 3.625 4.688zm-59.312-11.48h6.958V6.167h-6.958v13.666zm16.958 0h-6.958V6.167h6.958v13.666zM49 36h4.016v-7H49v7zm11.016 0H56v-7h4.016v7zM63 36h4.016v-7H63v7z" fill="#fff"/></svg>

<svg width="78" height="62" viewBox="0 0 78 62" fill="none" xmlns="http://www.w3.org/2000/svg">
<path fill-rule="evenodd" clip-rule="evenodd" d="M0 45.875C0 36.968 7.22 29.749 16.125 29.749C25.031 29.749 32.251 36.968 32.25 45.875C32.25 54.78 25.03 62 16.125 62C7.22 62 0 54.78 0 45.875ZM10.9579 51.0421C12.3283 52.4125 14.187 53.1823 16.125 53.182C18.063 53.1823 19.9217 52.4125 21.2921 51.0421C22.6625 49.6717 23.4323 47.813 23.432 45.875C23.432 41.8394 20.1605 38.568 16.125 38.568C12.0895 38.568 8.818 41.8394 8.818 45.875C8.81773 47.813 9.58749 49.6717 10.9579 51.0421ZM60.854 45.874C56.4015 45.874 52.792 49.4835 52.792 53.936C52.792 56.8163 54.3286 59.4778 56.823 60.9179C59.3174 62.358 62.3906 62.358 64.885 60.9179C67.3794 59.4778 68.916 56.8163 68.916 53.936C68.9165 51.7977 68.0673 49.7467 66.5553 48.2347C65.0433 46.7227 62.9923 45.8735 60.854 45.874ZM55.792 53.936C55.7914 56.7322 58.0578 58.9994 60.854 59C63.6502 59.0005 65.9174 56.7342 65.918 53.938C65.9186 51.1418 63.6522 48.8745 60.856 48.874C58.0598 48.8734 55.7926 51.1398 55.792 53.936Z" fill="white"/>
<path fill-rule="evenodd" clip-rule="evenodd" d="M75.437 31.313C75.875 34.625 77.898 49.727 77.898 49.727C77.898 49.727 78.641 52.875 75 52.875H73.045C72.656 46.473 67.355 41.396 60.854 41.396C54.353 41.396 49.053 46.473 48.663 52.875H38.499C39.19 50.664 39.563 48.313 39.563 45.875C39.563 32.929 29.069 22.436 16.125 22.436C11.4651 22.4285 6.90969 23.8168 3.046 26.422C3.001 23.463 3.004 12.537 5.312 6.167C5.312 6.167 6.375 3.625 8.75 3C11.125 2.375 33.5 0 33.5 0C33.5 0 35.814 0.062 36.626 1.875C37.438 3.688 47.188 23.75 47.188 23.75L59 25.128V19.833H63V14H66V25.946L71.812 26.625C71.812 26.625 74.89 27.172 75.437 31.313ZM16.125 19.833H23.083V6.167H16.125V19.833ZM33.083 19.833H26.125V6.167H33.083V19.833ZM49 36H53.016V29H49V36ZM60.016 36H56V29H60.016V36ZM63 36H67.016V29H63V36Z" fill="white"/>
</svg>
